client/imgs/mapmarker.svg

<?xml version="1.0" encoding="UTF-8" standalone="no" ?>
<svg xmlns="http://www.w3.org/2000/svg" xmlns:svg="http://www.w3.org/2000/svg" version="1.1" width="20" height="32" x="0px" y="0px" viewBox="0 0 20 32">
  <path fill="white" style="stroke:black;stroke-width:1" d="m 13.808971,10.058124 c 0,2.116474 -1.705334,3.832217 -3.8089714,3.832217 -2.103636,0 -3.8089706,-1.715743 -3.8089706,-3.832217 0,-2.1164785 1.7053346,-3.8322218 3.8089706,-3.8322218 2.1036374,0 3.8089714,1.7157433 3.8089714,3.8322218 z M 9.9999996,0.47757226 c -5.2592365,0 -9.52242734,4.28921204 -9.52242734,9.58055174 0,6.706382 9.52242734,21.077206 9.52242734,21.077206 0,0 9.5224294,-14.370824 9.5224294,-21.077206 0,-5.2913397 -4.264144,-9.58055174 -9.5224294,-9.58055174 z" />
</svg>

<?xml version="1.0" encoding="UTF-8"?>
<svg xmlns="http://www.w3.org/2000/svg" xmlns:xlink="http://www.w3.org/1999/xlink" width="200pt" height="320pt" viewBox="0 0 200 320" version="1.1">
<g id="surface1">
<path style="fill-rule:nonzero;fill:rgb(100%,100%,100%);fill-opacity:1;stroke-width:1;stroke-linecap:butt;stroke-linejoin:miter;stroke:rgb(0%,0%,0%);stroke-opacity:1;stroke-miterlimit:4;" d="M 13.808984 10.058203 C 13.808984 12.174609 12.103516 13.890234 10 13.890234 C 7.896484 13.890234 6.191016 12.174609 6.191016 10.058203 C 6.191016 7.941797 7.896484 6.225781 10 6.225781 C 12.103516 6.225781 13.808984 7.941797 13.808984 10.058203 Z M 10 0.477734 C 4.740625 0.477734 0.477734 4.766797 0.477734 10.058203 C 0.477734 16.764453 10 31.135156 10 31.135156 C 10 31.135156 19.522266 16.764453 19.522266 10.058203 C 19.522266 4.766797 15.258203 0.477734 10 0.477734 Z M 10 0.477734 " transform="matrix(10,0,0,10,0,0)"/>
</g>
</svg>
